packages/sights/assets/overlays/TDLex8-D.svg

<svg width="500" height="375" viewBox="0 0 500 375" fill="none" xmlns="http://www.w3.org/2000/svg">
<path d="M493.391 40.26L471.181 23.14C471.181 23.14 439.081 8.57 425.931 5" stroke="white" stroke-miterlimit="10"/>
<path d="M493.391 289.36L232.391 348.29L234.461 341.64L234.231 325.36C234.231 325.36 233.781 220.83 97.5706 222.17C97.5706 222.17 37.3606 225.84 7.39062 244.65" stroke="white" stroke-miterlimit="10"/>
<path d="M493.391 46.99C493.391 46.99 443.971 8.27 368.321 5" stroke="white" stroke-miterlimit="10"/>
<path d="M170.8 5C170.8 5 118.21 57.08 105.32 75.42C105.32 75.42 481.92 99.27 493.32 105.69" stroke="white" stroke-miterlimit="10"/>
<path d="M355.321 5C355.321 5 388.251 82.51 388.061 95L397.061 102.23L410.321 133.66V139.17C410.321 139.17 417.071 190.07 407.321 235.93C407.367 239.994 408.334 243.995 410.151 247.63L417.951 263.91L414.951 292.34L415.631 294.63L401.281 310.16" stroke="white" stroke-miterlimit="10"/>
<path d="M105.32 75.4199L99.2097 81.6899L88.3497 113.69C88.3497 113.69 106.01 179.57 117.93 199.29" stroke="white" stroke-miterlimit="10"/>
<path d="M192.66 222.16C170.14 208.38 139.1 198.32 96.6602 199.24" stroke="white" stroke-miterlimit="10"/>
<path d="M493.391 255.65C493.391 255.65 255.791 292.83 248.451 291.42" stroke="white" stroke-miterlimit="10"/>
<path d="M454.44 143.6L453.68 144.14L456.68 146.2L455.91 147.04H439L437.47 146.28L432.89 142.91L430.44 142.61L419.32 144.83L418.17 147.05L418.75 152.83L420.58 153.98C420.58 153.98 456.96 155.2 462.85 154.51L464.68 153.06L465.32 148.19L463.72 146.43C460.836 144.903 457.686 143.942 454.44 143.6V143.6Z" stroke="white" stroke-miterlimit="10"/>
<path d="M185.172 136.76L184.172 137.33L183.252 140.43L179.922 141.8C179.922 141.8 149.202 143.07 147.482 141.8L145.072 138.94L144.272 136.19L141.972 134.47C141.972 134.47 120.652 135.38 117.972 137.91L116.252 140.91C116.252 140.91 116.942 147.79 117.972 148.82L121.072 150.88C121.072 150.88 194.072 153.17 198.922 152.14L202.922 150.42L202.342 142.51L198.792 140.1C194.525 138.077 189.891 136.94 185.172 136.76Z" stroke="white" stroke-miterlimit="10"/>
<path d="M232.4 348.29L228.73 343.93V338.43L219.68 321.46L214.06 322.03" stroke="white" stroke-miterlimit="10"/>
<path d="M188.52 369.83C192.316 355.127 191.531 339.615 186.27 325.37C169.35 280.37 110.75 260.68 55.3904 281.48C36.9548 288.287 20.3786 299.335 7.00034 313.73" stroke="white" stroke-miterlimit="10"/>
<path d="M7.00087 263.91C7.00087 263.91 57.6809 204.98 156.001 238.22C156.001 238.22 180.241 250.38 190.821 268.49L210.571 308.39C210.571 308.39 221.121 340.96 210.571 369.5" stroke="white" stroke-miterlimit="10"/>
<path d="M57.9102 201.77C57.9102 201.77 21.5402 208.19 7.39017 215.52" stroke="white" stroke-miterlimit="10"/>
</svg>

<svg width="500" height="375" fill="none" xmlns="http://www.w3.org/2000/svg"><path d="m493.391 40.26-22.21-17.12S439.081 8.57 425.931 5M493.391 289.36l-261 58.93 2.07-6.65-.23-16.28s-.45-104.53-136.66-103.19c0 0-60.21 3.67-90.18 22.48M493.391 46.99S443.971 8.27 368.321 5M170.8 5s-52.59 52.08-65.48 70.42c0 0 376.6 23.85 388 30.27" stroke="#fff" stroke-miterlimit="10"/><path d="M355.321 5s32.93 77.51 32.74 90l9 7.23 13.26 31.43v5.51s6.75 50.9-3 96.76a26.848 26.848 0 0 0 2.83 11.7l7.8 16.28-3 28.43.68 2.29-14.35 15.53M105.32 75.42l-6.11 6.27-10.86 32s17.66 65.88 29.58 85.6" stroke="#fff" stroke-miterlimit="10"/><path d="M192.66 222.16c-22.52-13.78-53.56-23.84-96-22.92M493.391 255.65s-237.6 37.18-244.94 35.77M454.44 143.6l-.76.54 3 2.06-.77.84H439l-1.53-.76-4.58-3.37-2.45-.3-11.12 2.22-1.15 2.22.58 5.78 1.83 1.15s36.38 1.22 42.27.53l1.83-1.45.64-4.87-1.6-1.76a25.555 25.555 0 0 0-9.28-2.83ZM185.172 136.76l-1 .57-.92 3.1-3.33 1.37s-30.72 1.27-32.44 0l-2.41-2.86-.8-2.75-2.3-1.72s-21.32.91-24 3.44l-1.72 3s.69 6.88 1.72 7.91l3.1 2.06s73 2.29 77.85 1.26l4-1.72-.58-7.91-3.55-2.41a34.9 34.9 0 0 0-13.62-3.34ZM232.4 348.29l-3.67-4.36v-5.5l-9.05-16.97-5.62.57M188.52 369.83a74.544 74.544 0 0 0-2.25-44.46c-16.92-45-75.52-64.69-130.88-43.89A125.323 125.323 0 0 0 7 313.73" stroke="#fff" stroke-miterlimit="10"/><path d="M7 263.91s50.68-58.93 149.001-25.69c0 0 24.24 12.16 34.82 30.27l19.75 39.9s10.55 32.57 0 61.11M57.91 201.77s-36.37 6.42-50.52 13.75" stroke="#fff" stroke-miterlimit="10"/></svg>
